src/people-body/body-parts/1F9B6.svg

<svg id="emoji" viewBox="0 0 72 72" xmlns="http://www.w3.org/2000/svg">
  <g id="grid">
    <path fill="#b3b3b3" d="M68,4V68H4V4H68m4-4H0V72H72V0Z"/>
    <path fill="none" stroke="#00a5ff" stroke-miterlimit="10" stroke-width="0.1" d="M12.923,10.9583H59.0769A1.9231,1.9231,0,0,1,61,12.8814V59.0352a1.9231,1.9231,0,0,1-1.9231,1.9231H12.9231A1.9231,1.9231,0,0,1,11,59.0352V12.8813A1.923,1.923,0,0,1,12.923,10.9583Z"/>
    <rect x="16" y="4" rx="2.2537" width="40" height="64" fill="none" stroke="#00a5ff" stroke-miterlimit="10" stroke-width="0.1"/>
    <rect x="16" y="4" rx="2.2537" width="40" height="64" transform="translate(72) rotate(90)" fill="none" stroke="#00a5ff" stroke-miterlimit="10" stroke-width="0.1"/>
    <circle cx="36" cy="36" r="29" fill="none" stroke="#00a5ff" stroke-miterlimit="10" stroke-width="0.1"/>
  </g>
  <g id="color"/>
  <g id="skin">
    <path fill="#fcea2b" d="M38,13s2,18,2,23c0,4.1231-2.1716,7.5858-5,9-4,2-14,7-19,7H12.6a4.8944,4.8944,0,0,0-.6,2.5A3.5,3.5,0,0,0,15.5,58H49a5,5,0,0,0,5-5c0-6-3-11-3-17s3-23,3-23V12H38Z"/>
  </g>
  <g id="skin-shadow">
    <path fill="#f1b31c" d="M45.5,58H49a5,5,0,0,0,5-5c0-6-3-11-3-17s3-23,3-23V12H50s-3,17-3,23,3,11,3,17a5,5,0,0,1-5,5Z"/>
  </g>
  <g id="line">
    <path fill="none" stroke="#000" stroke-linecap="round" stroke-linejoin="round" stroke-width="2" d="M38,13s2,18,2,23c0,4.1231-2.1716,7.5858-5,9-4,2-14,7-19,7H12.6a4.8944,4.8944,0,0,0-.6,2.5A3.5,3.5,0,0,0,15.5,58H49a5,5,0,0,0,5-5c0-6-3-11-3-17s3-23,3-23"/>
    <path fill="none" stroke="#000" stroke-linecap="round" stroke-miterlimit="10" stroke-width="2" d="M48,47a4,4,0,0,1-4,4"/>
  </g>
</svg>

<svg viewBox="0 0 72 72" xmlns="http://www.w3.org/2000/svg"><path fill="#b3b3b3" d="M68 4v64H4V4h64m4-4H0v72h72V0z"/><path fill="none" stroke="#00a5ff" stroke-miterlimit="10" stroke-width=".1" d="M12.923 10.958h46.154A1.923 1.923 0 0161 12.881v46.154a1.923 1.923 0 01-1.923 1.923H12.923A1.923 1.923 0 0111 59.035V12.881a1.923 1.923 0 011.923-1.923z"/><rect x="16" y="4" rx="2.254" width="40" height="64" fill="none" stroke="#00a5ff" stroke-miterlimit="10" stroke-width=".1"/><rect x="16" y="4" rx="2.254" width="40" height="64" transform="rotate(90 36 36)" fill="none" stroke="#00a5ff" stroke-miterlimit="10" stroke-width=".1"/><circle cx="36" cy="36" r="29" fill="none" stroke="#00a5ff" stroke-miterlimit="10" stroke-width=".1"/><path d="M38 13s2 18 2 23c0 4.123-2.172 7.586-5 9-4 2-14 7-19 7h-3.4a4.894 4.894 0 00-.6 2.5 3.5 3.5 0 003.5 3.5H49a5 5 0 005-5c0-6-3-11-3-17s3-23 3-23m-6 34a4 4 0 01-4 4" stroke-linecap="round" stroke-miterlimit="10" stroke-width="6" stroke="#fff" fill="none" stroke-linejoin="round"/><path fill="#fcea2b" d="M38 13s2 18 2 23c0 4.123-2.172 7.586-5 9-4 2-14 7-19 7h-3.4a4.894 4.894 0 00-.6 2.5 3.5 3.5 0 003.5 3.5H49a5 5 0 005-5c0-6-3-11-3-17s3-23 3-23v-1H38z"/><path fill="#f1b31c" d="M45.5 58H49a5 5 0 005-5c0-6-3-11-3-17s3-23 3-23v-1h-4s-3 17-3 23 3 11 3 17a5 5 0 01-5 5z"/><g fill="none" stroke="#000" stroke-linecap="round" stroke-width="2"><path stroke-linejoin="round" d="M38 13s2 18 2 23c0 4.123-2.172 7.586-5 9-4 2-14 7-19 7h-3.4a4.894 4.894 0 00-.6 2.5 3.5 3.5 0 003.5 3.5H49a5 5 0 005-5c0-6-3-11-3-17s3-23 3-23"/><path stroke-miterlimit="10" d="M48 47a4 4 0 01-4 4"/></g></svg>
